assets/images/playstore-icon.svg

<svg width="40" height="40" viewBox="0 0 40 40" fill="none" xmlns="http://www.w3.org/2000/svg">
<path d="M5.88346 3.83148C5.50617 4.2308 5.28308 4.85079 5.28308 5.65412V34.3462C5.28308 35.1502 5.50624 35.7696 5.88346 36.1689L5.97946 36.2624L22.0522 20.1898V20.0002V19.8106L5.97946 3.7373L5.88346 3.83148Z" fill="url(#paint0_linear_753_5638)"/>
<path d="M27.4085 25.5497L22.0513 20.1898V20.0003V19.8106L27.4098 14.4521L27.5305 14.521L33.8782 18.1278C35.6914 19.1579 35.6914 20.8434 33.8782 21.8741L27.5305 25.4809L27.4085 25.5497Z" fill="url(#paint1_linear_753_5638)"/>
<path d="M27.5302 25.4801L22.0508 20.0002L5.88208 36.1689C6.47992 36.8016 7.46638 36.8799 8.57811 36.2485L27.5302 25.4801Z" fill="url(#paint2_linear_753_5638)"/>
<path d="M27.5302 14.5203L8.57811 3.75186C7.46638 3.12046 6.47992 3.1988 5.88208 3.8315L22.0508 20.0003L27.5302 14.5203Z" fill="url(#paint3_linear_753_5638)"/>
<defs>
<linearGradient id="paint0_linear_753_5638" x1="20.6269" y1="5.35161" x2="-1.14561" y2="27.1241" gradientUnits="userSpaceOnUse">
<stop stop-color="#00A0FF"/>
<stop offset="0.0066" stop-color="#00A2FF"/>
<stop offset="0.2601" stop-color="#00BEFF"/>
<stop offset="0.5122" stop-color="#00D2FF"/>
<stop offset="0.7604" stop-color="#00DFFF"/>
<stop offset="1" stop-color="#00E3FF"/>
</linearGradient>
<linearGradient id="paint1_linear_753_5638" x1="36.239" y1="20.0009" x2="4.84736" y2="20.0009" gradientUnits="userSpaceOnUse">
<stop stop-color="#FFE000"/>
<stop offset="0.4087" stop-color="#FFBD00"/>
<stop offset="0.7754" stop-color="#FFA600"/>
<stop offset="1" stop-color="#FF9C00"/>
</linearGradient>
<linearGradient id="paint2_linear_753_5638" x1="24.5528" y1="22.9778" x2="-4.9724" y2="52.503" gradientUnits="userSpaceOnUse">
<stop stop-color="#FF3743"/>
<stop offset="1" stop-color="#E30864"/>
</linearGradient>
<linearGradient id="paint3_linear_753_5638" x1="1.81095" y1="-5.71927" x2="14.9952" y2="7.46499" gradientUnits="userSpaceOnUse">
<stop stop-color="#00A06F"/>
<stop offset="0.0685" stop-color="#00A86E"/>
<stop offset="0.4762" stop-color="#00CF6E"/>
<stop offset="0.8009" stop-color="#00E76D"/>
<stop offset="1" stop-color="#00EF6D"/>
</linearGradient>
</defs>
</svg>

<svg xmlns="http://www.w3.org/2000/svg" width="40" height="40" fill="none" xmlns:v="https://vecta.io/nano"><path d="M5.883 3.831c-.377.399-.6 1.019-.6 1.823v28.692c0 .804.223 1.423.6 1.823l.096.093L22.052 20.19V20v-.19L5.979 3.737l-.096.094z" fill="url(#A)"/><path d="M27.409 25.55l-5.357-5.36V20v-.19l5.358-5.359.121.069 6.348 3.607c1.813 1.03 1.813 2.716 0 3.746l-6.348 3.607-.122.069z" fill="url(#B)"/><path d="M27.53 25.48L22.051 20 5.882 36.169c.598.633 1.584.711 2.696.08L27.53 25.48z" fill="url(#C)"/><path d="M27.53 14.52L8.578 3.752c-1.112-.631-2.098-.553-2.696.08L22.051 20l5.479-5.48z" fill="url(#D)"/><defs><linearGradient id="A" x1="20.627" y1="5.352" x2="-1.146" y2="27.124" gradientUnits="userSpaceOnUse"><stop stop-color="#00a0ff"/><stop offset=".007" stop-color="#00a2ff"/><stop offset=".26" stop-color="#00beff"/><stop offset=".512" stop-color="#00d2ff"/><stop offset=".76" stop-color="#00dfff"/><stop offset="1" stop-color="#00e3ff"/></linearGradient><linearGradient id="B" x1="36.239" y1="20.001" x2="4.847" y2="20.001" gradientUnits="userSpaceOnUse"><stop stop-color="#ffe000"/><stop offset=".409" stop-color="#ffbd00"/><stop offset=".775" stop-color="#ffa600"/><stop offset="1" stop-color="#ff9c00"/></linearGradient><linearGradient id="C" x1="24.553" y1="22.978" x2="-4.972" y2="52.503" gradientUnits="userSpaceOnUse"><stop stop-color="#ff3743"/><stop offset="1" stop-color="#e30864"/></linearGradient><linearGradient id="D" x1="1.811" y1="-5.719" x2="14.995" y2="7.465" gradientUnits="userSpaceOnUse"><stop stop-color="#00a06f"/><stop offset=".069" stop-color="#00a86e"/><stop offset=".476" stop-color="#00cf6e"/><stop offset=".801" stop-color="#00e76d"/><stop offset="1" stop-color="#00ef6d"/></linearGradient></defs></svg>
